X:1
T:The Word of God
T:The Word of God
T:Barney Elliott Warren
T:Clara McAlister Brooks, 1907
T:Public Domain Courtesy of the Cyber Hymnal™
T:Public Domain Courtesy of the Cyber Hymnal™
C:Barney Elliott Warren
Z:Public Domain
Z:Courtesy of the Cyber Hymnal™
%%score ( 1 2 ) ( 3 4 )
L:1/8
Q:1/4=107
M:4/4
K:C
V:1 treble 
V:2 treble 
V:3 bass 
V:4 bass 
V:1
 C>[CE] | [EG]2 [CE]2 [EG]2 [Ge]2 | [Ac]2 [FA]2 [Fc]2 [Fc]>[Fc] | [Ec]2 [EG]2 [EG]2 [CE]2 | %4
w: 1.~By the|Word of God the|worlds were made, And are|held in place by|
w: 2.~More to|be de- sired than|hon- ey sweet, Rich- er|are its trea- sures|
w: 3.~Thy e-|ter- nal law is|my de- light, Strength and|dai- ly man- na|
w: 4.~Stream of|life from Hea- ven,|crys- tal pure, Shed thy|cool- ing fresh- ness|
 [DF]2 [CE]2 [B,D]2 C>[CE] | [EG]2 [EG]2 [Ec][Ec][Ec][Ec] | [Ge]2 [Gc]2 [FA]2 [Fd]>[Fd] | %7
w: His com- mands; All the|grass- es wi- ther and the|flow- ers fade, But His|
w: far, than gold; Like a|bril- liant light, it shines to|guide my feet, Nev- er|
w: to my soul; ’Tis my|med- i- ta- tion all the|day and night, Balm to|
w: o- ver me; Let my|thirst- ing spir- it, till I|thirst no more, Drink thy|
 [Ec]2 [DB]2 [Ec]2 [Fd]2 | [Ec]6 z2 ||"^Refrain" [EG]2 [EG]2 [EG]2 [CE]2 | [Ec]4 [EG]4 | %11
w: truth for- ev- er|stands.|||
w: grows its sto- ry|old.|||
w: make the wound- ed|whole.|||
w: spark- ling wa- ters|free.|||
 [Gc]2 [FA]2 [EG]2 [DG]2 | [EG]6 z2 | [Fd]2 [Fd]2 [Ec]2 [FB]2 | [Gc]2 [Gd]2 [Ge]2 [Gc]2 | %15
w: ||||
w: ||||
w: ||||
w: ||||
 [Gd]6 z2 | [Ge]2 [Ec]2 [Ec]2 [CG]2 | [Ec]4 [EG]4 | [FA]2 [GB]2 [Gc]2 [Gd]2 | [Ge]6 z2 | %20
w: |||||
w: |||||
w: |||||
w: |||||
 [Gc]2 [Ec]2 [Fc]2 [Ad]2 | [Gc]4 [FB]4 | [Ec]6 |] %23
w: |||
w: |||
w: |||
w: |||
V:2
 C3/2 x/ | x8 | x8 | x8 | x6 C3/2 x/ | x8 | x8 | x8 | x8 || x8 | x8 | x8 | x8 | x8 | x8 | x8 | x8 | %17
 x8 | x8 | x8 | x8 | x8 | x6 |] %23
V:3
 [C,E,]>[C,G,] | [C,C]2 [C,G,]2 [C,C]2 [C,C]2 | [F,C]2 [F,C]2 [F,A,]2 [F,A,]>[F,A,] | %3
w: ~ ~|~ ~ ~ ~|~ ~ ~ ~ ~|
 [C,G,]2 [C,C]2 [C,C]2 [C,G,]2 | [B,,G,]2 [C,G,]2 [G,,G,]2 [C,E,]>[C,G,] | %5
w: ~ ~ ~ ~|~ ~ ~ ~ ~|
 [C,C]2 [C,C]2 [C,G,][C,G,][C,G,][C,G,] | [C,C]2 [E,C]2 [F,C]2 [F,A,]>[F,A,] | %7
w: ~ ~ ~ ~ ~ ~|~ ~ ~ ~ ~|
 G,2 G,2 [G,,G,]2 [G,,G,]2 | [C,G,]6 z2 || [C,C]2 [C,C]2 [C,C]2 [C,G,]2 | [C,G,]4 [C,C]4 | %11
w: ~ ~ ~ ~|~|Oh, the pre- cious|Bi- ble,|
 [E,C]2 [F,C]2 [G,C]2 [G,,B,]2 | [C,C]6 z2 | [G,B,]2 [G,B,]2 [A,C]2 [G,D]2 | %14
w: coun- sel for the|soul,|Path the faith- ful|
 [E,C]2 [D,B,]2 [C,C]2 [E,C]2 | [G,B,]6 z2 | [C,C]2 [C,G,]2 [C,G,]2 [C,E,]2 | [C,G,]4 [C,C]4 | %18
w: saints and mar- tyrs|trod;|Set- tled in the|hea- vens,|
 [F,C]2 [D,D]2 [E,C]2 [G,B,]2 | [G,C]6 z2 | [E,C]2 [C,C]2 [F,A,]2 [D,F]2 | [G,E]4 [G,,G,D]4 | %22
w: true while ag- es|roll,|Change- less as the|throne of|
 [C,C]6 |] %23
w: God.|
V:4
 x2 | x8 | x8 | x8 | x8 | x8 | x8 | G,2 G,2 x4 | x8 || x8 | x8 | x8 | x8 | x8 | x8 | x8 | x8 | x8 | %18
 x8 | x8 | x8 | x8 | x6 |] %23

